X:31
T:St. James's Park
M:12/8
L:1/8
B:Thompson's Compleat Collection of 200 Favourite Country Dances, vol. 1 (London, 1757)
Z:Transcribed and edited by Fynnian Titford-Mock, 2007
Z:abc's:AK/Fiddler's Companion
K:A
ecA ABA ABA f/g/af|ecA ABA ABA B/c/dB|ecA ABA ABA (f/g/a)f|edc dcB A3 a3:|
|:ecA aec ecA fgaf|ecA aec ecA (e/f/=g)e|ecA aec ecA f/g/af|eaf ecB A3 a3:|

